X:1    
B:Palmer, Roy, 1998, A Book of British Ballads, Llanerch
S:Alexander Crawford, of Leck, Ballymoney
F:http://www.folkinfo.org/songs
T:Lambkin
M:3/4     %Meter
L:1/8     %
K:C
C2 CD EC |D2 C2 (EF) |G2 G2 A2 |B4
w:Lamb-kin, the fin-est ma-son that_ e'er laid a stone,  
 C2 |C2 (CD) (EC) |D2 C2 CD |E2 C2 A,2 |C4
w:He built a_ lord's_ man-sion and for pay-ment got none. 
(EG) |c2 (cd) (ec) |d2 c2 (EG) |c2 (cd) (ec) |d4 
w:He_ built it_ with-*out and he_ sealed it_ with-*in 
EG c2 c2 G2 |A2 G2 CD |E2 (DC) A,2 |A,4 z2 |]
w:And he made a false win-dow for him-self to_ get in 